Simply white circles/scalable/places/folder-home.svg

<?xml version="1.0" encoding="UTF-8" standalone="no"?>
<!-- Created with Inkscape (http://www.inkscape.org/) -->

<svg
   xmlns:dc="http://purl.org/dc/elements/1.1/"
   xmlns:cc="http://creativecommons.org/ns#"
   xmlns:rdf="http://www.w3.org/1999/02/22-rdf-syntax-ns#"
   xmlns:svg="http://www.w3.org/2000/svg"
   xmlns="http://www.w3.org/2000/svg"
   xmlns:sodipodi="http://sodipodi.sourceforge.net/DTD/sodipodi-0.dtd"
   xmlns:inkscape="http://www.inkscape.org/namespaces/inkscape"
   width="48"
   height="48"
   viewBox="0 0 12.7 12.7"
   version="1.1"
   id="svg829"
   inkscape:version="0.92.3 (2405546, 2018-03-11)"
   sodipodi:docname="folder-home.svg">
  <defs
     id="defs823" />
  <sodipodi:namedview
     id="base"
     pagecolor="#ffffff"
     bordercolor="#666666"
     borderopacity="1.0"
     inkscape:pageopacity="0.0"
     inkscape:pageshadow="2"
     inkscape:zoom="3.6239223"
     inkscape:cx="-0.25286664"
     inkscape:cy="23.057868"
     inkscape:document-units="mm"
     inkscape:current-layer="layer1"
     showgrid="false"
     showguides="true"
     inkscape:guide-bbox="true"
     inkscape:window-width="1366"
     inkscape:window-height="719"
     inkscape:window-x="0"
     inkscape:window-y="25"
     inkscape:window-maximized="1"
     scale-x="1.9"
     units="px" />
  <metadata
     id="metadata826">
    <rdf:RDF>
      <cc:Work
         rdf:about="">
        <dc:format>image/svg+xml</dc:format>
        <dc:type
           rdf:resource="http://purl.org/dc/dcmitype/StillImage" />
        <dc:title></dc:title>
      </cc:Work>
    </rdf:RDF>
  </metadata>
  <g
     inkscape:label="Capa 1"
     inkscape:groupmode="layer"
     id="layer1"
     transform="translate(0,-284.3)">
    <path
       style="fill:#e6e6e6;fill-opacity:1;stroke-width:0.52516764"
       d="M 23.978516 0.27539062 A 23.770509 23.770509 0 0 0 0.20703125 24.046875 A 23.770509 23.770509 0 0 0 23.978516 47.816406 A 23.770509 23.770509 0 0 0 47.748047 24.046875 A 23.770509 23.770509 0 0 0 23.978516 0.27539062 z M 23.910156 3.8144531 A 20.436071 20.436071 0 0 1 44.345703 24.25 A 20.436071 20.436071 0 0 1 23.910156 44.685547 A 20.436071 20.436071 0 0 1 3.4726562 24.25 A 20.436071 20.436071 0 0 1 23.910156 3.8144531 z M 23.910156 5.8144531 L 5.2597656 24.464844 L 8.8691406 28.074219 L 11.876953 25.066406 L 11.876953 39.503906 L 21.503906 39.503906 L 21.503906 32.285156 C 21.503906 30.952003 22.576997 29.878906 23.910156 29.878906 C 25.243316 29.878906 26.316406 30.952003 26.316406 32.285156 L 26.316406 39.503906 L 35.941406 39.503906 L 35.941406 25.066406 L 38.949219 28.074219 L 42.560547 24.464844 L 23.910156 5.8144531 z M 31.128906 8.2207031 L 31.128906 10.025391 L 35.941406 14.837891 L 35.941406 8.2207031 L 31.128906 8.2207031 z "
       transform="matrix(0.26458333,0,0,0.26458333,0,284.3)"
       id="path1374" />
  </g>
</svg>

<?xml version="1.0" encoding="UTF-8" standalone="no"?>
<svg
   xmlns:dc="http://purl.org/dc/elements/1.1/"
   xmlns:cc="http://creativecommons.org/ns#"
   xmlns:rdf="http://www.w3.org/1999/02/22-rdf-syntax-ns#"
   xmlns:svg="http://www.w3.org/2000/svg"
   xmlns="http://www.w3.org/2000/svg"
   xmlns:sodipodi="http://sodipodi.sourceforge.net/DTD/sodipodi-0.dtd"
   xmlns:inkscape="http://www.inkscape.org/namespaces/inkscape"
   width="48"
   height="48"
   version="1.1"
   viewBox="0 0 12.7 12.7"
   id="svg8"
   sodipodi:docname="folder-home.svg"
   inkscape:version="0.92.3 (2405546, 2018-03-11)">
  <defs
     id="defs12" />
  <sodipodi:namedview
     pagecolor="#ffffff"
     bordercolor="#666666"
     borderopacity="1"
     objecttolerance="10"
     gridtolerance="10"
     guidetolerance="10"
     inkscape:pageopacity="0"
     inkscape:pageshadow="2"
     inkscape:window-width="1366"
     inkscape:window-height="714"
     id="namedview10"
     showgrid="false"
     inkscape:zoom="4.9166667"
     inkscape:cx="4.1694917"
     inkscape:cy="24"
     inkscape:window-x="0"
     inkscape:window-y="25"
     inkscape:window-maximized="1"
     inkscape:current-layer="svg8" />
  <metadata
     id="metadata2">
    <rdf:RDF>
      <cc:Work
         rdf:about="">
        <dc:format>image/svg+xml</dc:format>
        <dc:type
           rdf:resource="http://purl.org/dc/dcmitype/StillImage" />
        <dc:title></dc:title>
      </cc:Work>
    </rdf:RDF>
  </metadata>
  <g
     transform="translate(0,-284.3)"
     id="g6"
     style="fill:#e6e6e6">
    <path
       transform="matrix(.26458 0 0 .26458 0 284.3)"
       d="m23.979 0.27539a23.771 23.771 0 0 0 -23.771 23.771 23.771 23.771 0 0 0 23.771 23.77 23.771 23.771 0 0 0 23.77 -23.77 23.771 23.771 0 0 0 -23.77 -23.771zm-0.06836 3.5391a20.436 20.436 0 0 1 20.436 20.436 20.436 20.436 0 0 1 -20.436 20.436 20.436 20.436 0 0 1 -20.437 -20.436 20.436 20.436 0 0 1 20.437 -20.436zm0 2l-18.65 18.65 3.6094 3.6094 3.0078-3.0078v14.438h9.627v-7.2188c0-1.3332 1.0731-2.4062 2.4062-2.4062 1.3332 0 2.4062 1.0731 2.4062 2.4062v7.2188h9.625v-14.438l3.0078 3.0078 3.6113-3.6094-18.65-18.65zm7.2188 2.4062v1.8047l4.8125 4.8125v-6.6172h-4.8125z"
       fill="#1a1a1a"
       stroke-width=".52517"
       id="path4"
       style="fill:#e6e6e6" />
  </g>
</svg>
